X: 1
T: Queen Of May, The
T: P.J. Crotty's
M: 4/4
L: 1/8
R: reel
K: E dorian
Bcdf eBdB|AD F/E/D FAAd|Bcdf edBc|dB A/A/=c BEGA|
B3 B BAdB|AD F/E/D FAAd|Bcdf edBc|dB A/A/=c BEGA||
B2 eB fBeB|defa afed|~B2 eB fBeB|dB A/A/=c BEGA|
(3Bcd eg ~f3 e|defa afea|fbba ~f3 e|dB A/A/=c BEGA||
